X:9534
T:Les saltimbanques
C:XIII&egrave;me si&egrave;cle
O:France
M:6/8
L:1/8
Q:1/4=120
W:Les voilà, les voilà de nouveau parmi nous vois !
W:Vois, les saltimbanques, leurs ours, leurs chiens et tous leurs tours
W:Leurs tambours quad le soleil éteindra le jour sourd
W:Comme un cur qui bat, va envouter tous les alentours
W:
W:Sur la place venez tous, venez nous voir
W:Sur la place venez tous, venez ce soir.
W:
W:Sur son fil le funambule à petits pas va,
W:plus vite dans la foule pas un seul cri, pas un seul mot
W:Tournoyant sa jupe rouge comme une fleur vire,
W:danse la ballerie, le tambourin rythme ses pas.            
W:
W:Voici l'ours, un petit singe sur son épaule tient,
W:et puis les caniches sautant à travers les cerceaux
W:Et bientôt jongleurs lutteurs et magiciens, tous,
W:dans la nuit sans bruit partiront vers d'autres pays.
K:C
D3CD2|F3 A/2G/2FE|DE2CD2|F6|
F3A GA|FE2DC2|DC2D FE|D6:|
D3CD2|F3G FE|DE2DC2|D6:|
W:
W:Les voilà, les voilà de nouveau parmi nous vois !
W:Vois, les saltimbanques, leurs ours, leurs chiens et tous leurs tours
W:Leurs tambours quad le soleil éteindra le jour sourd
W:Comme un cur qui bat, va envouter tous les alentours
W:
W:Sur la place venez tous, venez nous voir
W:Sur la place venez tous, venez ce soir.
W:
W:Sur son fil le funambule à petits pas va,
W:plus vite dans la foule pas un seul cri, pas un seul mot
W:Tournoyant sa jupe rouge comme une fleur vire,
W:danse la ballerie, le tambourin rythme ses pas.            
W:
W:Voici l'ours, un petit singe sur son épaule tient,
W:et puis les caniches sautant à travers les cerceaux
W:Et bientôt jongleurs lutteurs et magiciens, tous,
W:dans la nuit sans bruit partiront vers d'autres pays.


